static/img/kroki/069fd40fe8e2a16a251cef0dcd6742f4.svg

<?xml version="1.0" encoding="us-ascii" standalone="no"?><svg xmlns="http://www.w3.org/2000/svg" xmlns:xlink="http://www.w3.org/1999/xlink" contentStyleType="text/css" height="451px" preserveAspectRatio="none" style="width:665px;height:451px;" version="1.1" viewBox="0 0 665 451" width="665px" zoomAndPan="magnify"><defs/><g><!--class aws_ec2_security_group--><g id="elem_aws_ec2_security_group"><rect codeLine="23" fill="#3D176E" height="39.7891" id="aws_ec2_security_group" rx="2.5" ry="2.5" style="stroke:#000D19;stroke-width:0.5;" width="245" x="413" y="7"/><ellipse cx="428" cy="26.8945" fill="#ADD1B2" rx="11" ry="11" style="stroke:#181818;stroke-width:1.0;"/><path d="M430.9688,32.5352 Q430.3906,32.832 429.75,32.9727 Q429.1094,33.1289 428.4063,33.1289 Q425.9063,33.1289 424.5781,31.4883 Q423.2656,29.832 423.2656,26.707 Q423.2656,23.582 424.5781,21.9258 Q425.9063,20.2695 428.4063,20.2695 Q429.1094,20.2695 429.75,20.4258 Q430.4063,20.582 430.9688,20.8789 L430.9688,23.5977 Q430.3438,23.0195 429.75,22.7539 Q429.1563,22.4727 428.5313,22.4727 Q427.1875,22.4727 426.5,23.5508 Q425.8125,24.6133 425.8125,26.707 Q425.8125,28.8008 426.5,29.8789 Q427.1875,30.9414 428.5313,30.9414 Q429.1563,30.9414 429.75,30.6758 Q430.3438,30.3945 430.9688,29.8164 L430.9688,32.5352 Z " fill="#000000"/><text fill="#D9B8FF" font-family="Helvetica" font-size="17" lengthAdjust="spacing" textLength="203" x="447" y="32.7798">aws_ec2_security_group</text></g><!--class aws_ec2_subnet--><g id="elem_aws_ec2_subnet"><rect codeLine="26" fill="#3D176E" height="39.7891" id="aws_ec2_subnet" rx="2.5" ry="2.5" style="stroke:#000D19;stroke-width:0.5;" width="179" x="7" y="7"/><ellipse cx="22" cy="26.8945" fill="#ADD1B2" rx="11" ry="11" style="stroke:#181818;stroke-width:1.0;"/><path d="M24.9688,32.5352 Q24.3906,32.832 23.75,32.9727 Q23.1094,33.1289 22.4063,33.1289 Q19.9063,33.1289 18.5781,31.4883 Q17.2656,29.832 17.2656,26.707 Q17.2656,23.582 18.5781,21.9258 Q19.9063,20.2695 22.4063,20.2695 Q23.1094,20.2695 23.75,20.4258 Q24.4063,20.582 24.9688,20.8789 L24.9688,23.5977 Q24.3438,23.0195 23.75,22.7539 Q23.1563,22.4727 22.5313,22.4727 Q21.1875,22.4727 20.5,23.5508 Q19.8125,24.6133 19.8125,26.707 Q19.8125,28.8008 20.5,29.8789 Q21.1875,30.9414 22.5313,30.9414 Q23.1563,30.9414 23.75,30.6758 Q24.3438,30.3945 24.9688,29.8164 L24.9688,32.5352 Z " fill="#000000"/><text fill="#D9B8FF" font-family="Helvetica" font-size="17" lengthAdjust="spacing" textLength="137" x="41" y="32.7798">aws_ec2_subnet</text></g><!--class aws_iam_role--><g id="elem_aws_iam_role"><rect codeLine="29" fill="#3D176E" height="39.7891" id="aws_iam_role" rx="2.5" ry="2.5" style="stroke:#000D19;stroke-width:0.5;" width="157" x="221" y="7"/><ellipse cx="236" cy="26.8945" fill="#ADD1B2" rx="11" ry="11" style="stroke:#181818;stroke-width:1.0;"/><path d="M238.9688,32.5352 Q238.3906,32.832 237.75,32.9727 Q237.1094,33.1289 236.4063,33.1289 Q233.9063,33.1289 232.5781,31.4883 Q231.2656,29.832 231.2656,26.707 Q231.2656,23.582 232.5781,21.9258 Q233.9063,20.2695 236.4063,20.2695 Q237.1094,20.2695 237.75,20.4258 Q238.4063,20.582 238.9688,20.8789 L238.9688,23.5977 Q238.3438,23.0195 237.75,22.7539 Q237.1563,22.4727 236.5313,22.4727 Q235.1875,22.4727 234.5,23.5508 Q233.8125,24.6133 233.8125,26.707 Q233.8125,28.8008 234.5,29.8789 Q235.1875,30.9414 236.5313,30.9414 Q237.1563,30.9414 237.75,30.6758 Q238.3438,30.3945 238.9688,29.8164 L238.9688,32.5352 Z " fill="#000000"/><text fill="#D9B8FF" font-family="Helvetica" font-size="17" lengthAdjust="spacing" textLength="115" x="255" y="32.7798">aws_iam_role</text></g><!--class aws_s3_bucket--><g id="elem_aws_s3_bucket"><rect codeLine="32" fill="#3D176E" height="39.7891" id="aws_s3_bucket" rx="2.5" ry="2.5" style="stroke:#000D19;stroke-width:0.5;" width="168" x="259.5" y="406.16"/><ellipse cx="274.5" cy="426.0545" fill="#ADD1B2" rx="11" ry="11" style="stroke:#181818;stroke-width:1.0;"/><path d="M277.4688,431.6952 Q276.8906,431.992 276.25,432.1327 Q275.6094,432.2889 274.9063,432.2889 Q272.4063,432.2889 271.0781,430.6483 Q269.7656,428.992 269.7656,425.867 Q269.7656,422.742 271.0781,421.0858 Q272.4063,419.4295 274.9063,419.4295 Q275.6094,419.4295 276.25,419.5858 Q276.9063,419.742 277.4688,420.0389 L277.4688,422.7577 Q276.8438,422.1795 276.25,421.9139 Q275.6563,421.6327 275.0313,421.6327 Q273.6875,421.6327 273,422.7108 Q272.3125,423.7733 272.3125,425.867 Q272.3125,427.9608 273,429.0389 Q273.6875,430.1014 275.0313,430.1014 Q275.6563,430.1014 276.25,429.8358 Q276.8438,429.5545 277.4688,428.9764 L277.4688,431.6952 Z " fill="#000000"/><text fill="#D9B8FF" font-family="Helvetica" font-size="17" lengthAdjust="spacing" textLength="126" x="293.5" y="431.9398">aws_s3_bucket</text></g><!--class aws_sagemaker_labeling_job--><g id="elem_aws_sagemaker_labeling_job"><rect codeLine="35" fill="#3D176E" height="39.7891" id="aws_sagemaker_labeling_job" rx="2.5" ry="2.5" style="stroke:#000D19;stroke-width:0.5;" width="285" x="329" y="206.58"/><ellipse cx="344" cy="226.4745" fill="#ADD1B2" rx="11" ry="11" style="stroke:#181818;stroke-width:1.0;"/><path d="M346.9688,232.1152 Q346.3906,232.412 345.75,232.5527 Q345.1094,232.7089 344.4063,232.7089 Q341.9063,232.7089 340.5781,231.0683 Q339.2656,229.412 339.2656,226.287 Q339.2656,223.162 340.5781,221.5058 Q341.9063,219.8495 344.4063,219.8495 Q345.1094,219.8495 345.75,220.0058 Q346.4063,220.162 346.9688,220.4589 L346.9688,223.1777 Q346.3438,222.5995 345.75,222.3339 Q345.1563,222.0527 344.5313,222.0527 Q343.1875,222.0527 342.5,223.1308 Q341.8125,224.1933 341.8125,226.287 Q341.8125,228.3808 342.5,229.4589 Q343.1875,230.5214 344.5313,230.5214 Q345.1563,230.5214 345.75,230.2558 Q346.3438,229.9745 346.9688,229.3964 L346.9688,232.1152 Z " fill="#000000"/><text fill="#D9B8FF" font-family="Helvetica" font-size="17" lengthAdjust="spacing" textLength="243" x="363" y="232.3598">aws_sagemaker_labeling_job</text></g><!--class aws_sagemaker_model--><g id="elem_aws_sagemaker_model"><rect codeLine="38" fill="#3D176E" height="39.7891" id="aws_sagemaker_model" rx="2.5" ry="2.5" style="stroke:#000D19;stroke-width:0.5;" width="237" x="168" y="106.79"/><ellipse cx="183" cy="126.6845" fill="#ADD1B2" rx="11" ry="11" style="stroke:#181818;stroke-width:1.0;"/><path d="M185.9688,132.3252 Q185.3906,132.622 184.75,132.7627 Q184.1094,132.9189 183.4063,132.9189 Q180.9063,132.9189 179.5781,131.2783 Q178.2656,129.622 178.2656,126.497 Q178.2656,123.372 179.5781,121.7158 Q180.9063,120.0595 183.4063,120.0595 Q184.1094,120.0595 184.75,120.2158 Q185.4063,120.372 185.9688,120.6689 L185.9688,123.3877 Q185.3438,122.8095 184.75,122.5439 Q184.1563,122.2627 183.5313,122.2627 Q182.1875,122.2627 181.5,123.3408 Q180.8125,124.4033 180.8125,126.497 Q180.8125,128.5908 181.5,129.6689 Q182.1875,130.7314 183.5313,130.7314 Q184.1563,130.7314 184.75,130.4658 Q185.3438,130.1845 185.9688,129.6064 L185.9688,132.3252 Z " fill="#000000"/><text fill="#D9B8FF" font-family="Helvetica" font-size="17" lengthAdjust="spacing" textLength="195" x="202" y="132.5698">aws_sagemaker_model</text></g><!--class aws_sagemaker_transform_job--><g id="elem_aws_sagemaker_transform_job"><rect codeLine="41" fill="#3D176E" height="39.7891" id="aws_sagemaker_transform_job" rx="2.5" ry="2.5" style="stroke:#000D19;stroke-width:0.5;" width="302" x="192.5" y="306.37"/><ellipse cx="207.5" cy="326.2645" fill="#ADD1B2" rx="11" ry="11" style="stroke:#181818;stroke-width:1.0;"/><path d="M210.4688,331.9052 Q209.8906,332.202 209.25,332.3427 Q208.6094,332.4989 207.9063,332.4989 Q205.4063,332.4989 204.0781,330.8583 Q202.7656,329.202 202.7656,326.077 Q202.7656,322.952 204.0781,321.2958 Q205.4063,319.6395 207.9063,319.6395 Q208.6094,319.6395 209.25,319.7958 Q209.9063,319.952 210.4688,320.2489 L210.4688,322.9677 Q209.8438,322.3895 209.25,322.1239 Q208.6563,321.8427 208.0313,321.8427 Q206.6875,321.8427 206,322.9208 Q205.3125,323.9833 205.3125,326.077 Q205.3125,328.1708 206,329.2489 Q206.6875,330.3114 208.0313,330.3114 Q208.6563,330.3114 209.25,330.0458 Q209.8438,329.7645 210.4688,329.1864 L210.4688,331.9052 Z " fill="#000000"/><text fill="#D9B8FF" font-family="Helvetica" font-size="17" lengthAdjust="spacing" textLength="260" x="226.5" y="332.1498">aws_sagemaker_transform_job</text></g><!--link aws_ec2_security_group to aws_sagemaker_labeling_job--><g id="link_aws_ec2_security_group_aws_sagemaker_labeling_job"><path codeLine="44" d="M529.25,47.2 C517.01,84.98 491.8784,162.5518 479.6284,200.3818 " fill="none" id="aws_ec2_security_group-to-aws_sagemaker_labeling_job" style="stroke:#1A83AF;stroke-width:2.0;"/><polygon fill="#1A83AF" points="477.78,206.09,484.3581,198.76,479.3203,201.3332,476.7472,196.2954,477.78,206.09" style="stroke:#1A83AF;stroke-width:2.0;"/></g><!--link aws_ec2_security_group to aws_sagemaker_model--><g id="link_aws_ec2_security_group_aws_sagemaker_model"><path codeLine="45" d="M486.31,47.22 C442.65,64.36 384.7948,87.0868 341.1748,104.2168 " fill="none" id="aws_ec2_security_group-to-aws_sagemaker_model" style="stroke:#1A83AF;stroke-width:2.0;"/><polygon fill="#1A83AF" points="335.59,106.41,345.4293,106.8434,340.244,104.5823,342.505,99.397,335.59,106.41" style="stroke:#1A83AF;stroke-width:2.0;"/></g><!--link aws_ec2_subnet to aws_sagemaker_labeling_job--><g id="link_aws_ec2_subnet_aws_sagemaker_labeling_job"><path codeLine="46" d="M99.85,47.07 C105.49,73.53 119.48,120.86 150.5,146.58 C200.19,187.8 262.2758,207.0693 322.9058,216.7993 " fill="none" id="aws_ec2_subnet-to-aws_sagemaker_labeling_job" style="stroke:#1A83AF;stroke-width:2.0;"/><polygon fill="#1A83AF" points="328.83,217.75,320.5775,212.3744,323.8932,216.9577,319.3099,220.2734,328.83,217.75" style="stroke:#1A83AF;stroke-width:2.0;"/></g><!--link aws_ec2_subnet to aws_sagemaker_model--><g id="link_aws_ec2_subnet_aws_sagemaker_model"><path codeLine="47" d="M134.04,47.22 C167.35,64.36 210.4149,86.5347 243.7049,103.6647 " fill="none" id="aws_ec2_subnet-to-aws_sagemaker_model" style="stroke:#1A83AF;stroke-width:2.0;"/><polygon fill="#1A83AF" points="249.04,106.41,242.8675,98.7353,244.5941,104.1223,239.2071,105.8488,249.04,106.41" style="stroke:#1A83AF;stroke-width:2.0;"/></g><!--link aws_iam_role to aws_sagemaker_labeling_job--><g id="link_aws_iam_role_aws_sagemaker_labeling_job"><path codeLine="48" d="M342.71,47.26 C368.76,60.77 400.95,81 422.5,106.79 C447.51,136.73 459.7999,175.3729 465.9699,200.5129 " fill="none" id="aws_iam_role-to-aws_sagemaker_labeling_job" style="stroke:#1A83AF;stroke-width:2.0;"/><polygon fill="#1A83AF" points="467.4,206.34,469.1395,196.646,466.2082,201.4841,461.3701,198.5528,467.4,206.34" style="stroke:#1A83AF;stroke-width:2.0;"/></g><!--link aws_iam_role to aws_sagemaker_model--><g id="link_aws_iam_role_aws_sagemaker_model"><path codeLine="49" d="M296.93,47.22 C294.65,64.36 292.1316,83.3325 289.8516,100.4625 " fill="none" id="aws_iam_role-to-aws_sagemaker_model" style="stroke:#1A83AF;stroke-width:2.0;"/><polygon fill="#1A83AF" points="289.06,106.41,294.2125,98.0164,289.7197,101.4537,286.2824,96.9609,289.06,106.41" style="stroke:#1A83AF;stroke-width:2.0;"/></g><!--link aws_sagemaker_labeling_job to aws_s3_bucket--><g id="link_aws_sagemaker_labeling_job_aws_s3_bucket"><path codeLine="50" d="M487.75,246.8 C506.31,271.37 531.67,314.41 511.5,346.16 C492.76,375.67 465.3507,392.2674 433.5107,403.9874 " fill="none" id="aws_sagemaker_labeling_job-to-aws_s3_bucket" style="stroke:#1A83AF;stroke-width:2.0;"/><polygon fill="#1A83AF" points="427.88,406.06,437.7077,406.7049,432.5722,404.3328,434.9443,399.1973,427.88,406.06" style="stroke:#1A83AF;stroke-width:2.0;"/></g><!--link aws_sagemaker_labeling_job to aws_sagemaker_transform_job--><g id="link_aws_sagemaker_labeling_job_aws_sagemaker_transform_job"><path codeLine="51" d="M446.21,246.8 C423.77,263.94 395.9266,285.2059 373.5066,302.3459 " fill="none" id="aws_sagemaker_labeling_job-to-aws_sagemaker_transform_job" style="stroke:#1A83AF;stroke-width:2.0;"/><polygon fill="#1A83AF" points="368.74,305.99,378.3193,303.7016,372.7122,302.9533,373.4606,297.3461,368.74,305.99" style="stroke:#1A83AF;stroke-width:2.0;"/></g><!--link aws_sagemaker_model to aws_s3_bucket--><g id="link_aws_sagemaker_model_aws_s3_bucket"><path codeLine="52" d="M263.02,147.06 C218.71,186.03 131.02,276.13 175.5,346.16 C194.24,375.67 221.6493,392.2674 253.4893,403.9874 " fill="none" id="aws_sagemaker_model-to-aws_s3_bucket" style="stroke:#1A83AF;stroke-width:2.0;"/><polygon fill="#1A83AF" points="259.12,406.06,252.0557,399.1973,254.4278,404.3328,249.2923,406.7049,259.12,406.06" style="stroke:#1A83AF;stroke-width:2.0;"/></g><!--link aws_sagemaker_model to aws_sagemaker_labeling_job--><g id="link_aws_sagemaker_model_aws_sagemaker_labeling_job"><path codeLine="53" d="M323.05,147.01 C355.48,164.15 397.3154,186.2663 429.7254,203.3963 " fill="none" id="aws_sagemaker_model-to-aws_sagemaker_labeling_job" style="stroke:#1A83AF;stroke-width:2.0;"/><polygon fill="#1A83AF" points="435.03,206.2,428.9422,198.458,430.6095,203.8636,425.2039,205.5309,435.03,206.2" style="stroke:#1A83AF;stroke-width:2.0;"/></g><!--link aws_sagemaker_model to aws_sagemaker_transform_job--><g id="link_aws_sagemaker_model_aws_sagemaker_transform_job"><path codeLine="54" d="M289.46,146.86 C293.36,170.55 300.98,211.94 311.5,246.37 C317.89,267.29 325.1441,284.9111 332.1841,300.6811 " fill="none" id="aws_sagemaker_model-to-aws_sagemaker_transform_job" style="stroke:#1A83AF;stroke-width:2.0;"/><polygon fill="#1A83AF" points="334.63,306.16,334.6138,296.3112,332.5918,301.5943,327.3087,299.5723,334.63,306.16" style="stroke:#1A83AF;stroke-width:2.0;"/></g><!--link aws_sagemaker_transform_job to aws_s3_bucket--><g id="link_aws_sagemaker_transform_job_aws_s3_bucket"><path codeLine="55" d="M343.5,346.59 C343.5,363.73 343.5,382.64 343.5,399.78 " fill="none" id="aws_sagemaker_transform_job-to-aws_s3_bucket" style="stroke:#1A83AF;stroke-width:2.0;"/><polygon fill="#1A83AF" points="343.5,405.78,347.5,396.78,343.5,400.78,339.5,396.78,343.5,405.78" style="stroke:#1A83AF;stroke-width:2.0;"/></g><!--SRC=[dPBHJy8m4CRVzrSquPc4kIZmOZ99YBuG8xuPitJh5UhMThbs4ZJ-xp8G61qRpDVUxxllkxik1GC2ChTh8a76WCOpgL0vHIf9YAXN4vrf93tEAG-6Rd6gbRq8pAW4yWZP9rYHK9TuNOeaLM0CkQcK7cYIBb0NYktQMwJAR4gWR8MQPDIOq5eKSM6X4eQDun7dBkasxGNC7zv13TF80F-GmM30_B6BNBHgdVj0pCKN4B-wj9csK8jPizXIhIbBeXAoDkY-tfZncJ8cr8BSLjvUTfbG0PwypvUKwLL9SvgPgesnWA3jEeT9RIeOZnWVdeMVcc0lALT7wCf4aDn41f82XLr79PkJRy_xSOaYLc3TYg0oGfs1-sw2A2wIj2umT06Ife1HHcF8DgD67pfkfgHca3MNjx-PQvJ7BWqZzTzwVZWAmkbx_xuboJ_asuYUiwVETXTbHvl3qhkON2CwMZISgQxTtxcRwlpzl7Edlzgo2MzUIGTjMyxJFzYIznS0]--></g></svg>

<svg xmlns="http://www.w3.org/2000/svg" width="665" height="451" viewBox="0 0 665 451"><rect width="245" height="39.789" x="413" y="7" fill="#3D176E" rx="2.5" ry="2.5" style="stroke:#000d19;stroke-width:.5"/><circle cx="428" cy="26.895" r="11" fill="#ADD1B2" style="stroke:#181818;stroke-width:1"/><path d="M430.969 32.535q-.578.297-1.219.438-.64.156-1.344.156-2.5 0-3.828-1.64-1.312-1.657-1.312-4.782t1.312-4.781q1.328-1.656 3.828-1.656.703 0 1.344.156.656.156 1.219.453v2.719q-.625-.578-1.219-.844-.594-.281-1.219-.281-1.344 0-2.031 1.078-.687 1.062-.687 3.156t.687 3.172q.688 1.062 2.031 1.062.625 0 1.219-.265.594-.281 1.219-.86z"/><text x="447" y="32.78" fill="#D9B8FF" font-family="Helvetica" font-size="17" textLength="203">aws_ec2_security_group</text><rect width="179" height="39.789" x="7" y="7" fill="#3D176E" rx="2.5" ry="2.5" style="stroke:#000d19;stroke-width:.5"/><circle cx="22" cy="26.895" r="11" fill="#ADD1B2" style="stroke:#181818;stroke-width:1"/><path d="M24.969 32.535q-.578.297-1.219.438-.64.156-1.344.156-2.5 0-3.828-1.64-1.312-1.657-1.312-4.782t1.312-4.781q1.328-1.656 3.828-1.656.703 0 1.344.156.656.156 1.219.453v2.719q-.625-.578-1.219-.844-.594-.281-1.219-.281-1.343 0-2.031 1.078-.687 1.062-.687 3.156t.687 3.172q.688 1.062 2.031 1.062.625 0 1.219-.265.594-.281 1.219-.86z"/><text x="41" y="32.78" fill="#D9B8FF" font-family="Helvetica" font-size="17" textLength="137">aws_ec2_subnet</text><rect width="157" height="39.789" x="221" y="7" fill="#3D176E" rx="2.5" ry="2.5" style="stroke:#000d19;stroke-width:.5"/><circle cx="236" cy="26.895" r="11" fill="#ADD1B2" style="stroke:#181818;stroke-width:1"/><path d="M238.969 32.535q-.578.297-1.219.438-.64.156-1.344.156-2.5 0-3.828-1.64-1.312-1.657-1.312-4.782t1.312-4.781q1.328-1.656 3.828-1.656.703 0 1.344.156.656.156 1.219.453v2.719q-.625-.578-1.219-.844-.594-.281-1.219-.281-1.344 0-2.031 1.078-.687 1.062-.687 3.156t.687 3.172q.688 1.062 2.031 1.062.625 0 1.219-.265.594-.281 1.219-.86z"/><text x="255" y="32.78" fill="#D9B8FF" font-family="Helvetica" font-size="17" textLength="115">aws_iam_role</text><rect width="168" height="39.789" x="259.5" y="406.16" fill="#3D176E" rx="2.5" ry="2.5" style="stroke:#000d19;stroke-width:.5"/><circle cx="274.5" cy="426.055" r="11" fill="#ADD1B2" style="stroke:#181818;stroke-width:1"/><path d="M277.469 431.695q-.578.297-1.219.438-.64.156-1.344.156-2.5 0-3.828-1.64-1.312-1.657-1.312-4.782t1.312-4.781q1.328-1.656 3.828-1.656.703 0 1.344.156.656.156 1.219.453v2.719q-.625-.578-1.219-.844-.594-.281-1.219-.281-1.344 0-2.031 1.078-.687 1.062-.687 3.156t.687 3.172q.688 1.062 2.031 1.062.625 0 1.219-.265.594-.281 1.219-.86z"/><text x="293.5" y="431.94" fill="#D9B8FF" font-family="Helvetica" font-size="17" textLength="126">aws_s3_bucket</text><rect width="285" height="39.789" x="329" y="206.58" fill="#3D176E" rx="2.5" ry="2.5" style="stroke:#000d19;stroke-width:.5"/><circle cx="344" cy="226.475" r="11" fill="#ADD1B2" style="stroke:#181818;stroke-width:1"/><path d="M346.969 232.115q-.578.297-1.219.438-.64.156-1.344.156-2.5 0-3.828-1.64-1.312-1.657-1.312-4.782t1.312-4.781q1.328-1.656 3.828-1.656.703 0 1.344.156.656.156 1.219.453v2.719q-.625-.578-1.219-.844-.594-.281-1.219-.281-1.344 0-2.031 1.078-.687 1.062-.687 3.156t.687 3.172q.688 1.062 2.031 1.062.625 0 1.219-.265.594-.281 1.219-.86z"/><text x="363" y="232.36" fill="#D9B8FF" font-family="Helvetica" font-size="17" textLength="243">aws_sagemaker_labeling_job</text><rect width="237" height="39.789" x="168" y="106.79" fill="#3D176E" rx="2.5" ry="2.5" style="stroke:#000d19;stroke-width:.5"/><circle cx="183" cy="126.684" r="11" fill="#ADD1B2" style="stroke:#181818;stroke-width:1"/><path d="M185.969 132.325q-.578.297-1.219.438-.64.156-1.344.156-2.5 0-3.828-1.64-1.312-1.657-1.312-4.782t1.312-4.781q1.328-1.656 3.828-1.656.703 0 1.344.156.656.156 1.219.453v2.719q-.625-.579-1.219-.844-.594-.281-1.219-.281-1.344 0-2.031 1.078-.687 1.062-.687 3.156t.687 3.172q.688 1.062 2.031 1.062.625 0 1.219-.265.594-.281 1.219-.86z"/><text x="202" y="132.57" fill="#D9B8FF" font-family="Helvetica" font-size="17" textLength="195">aws_sagemaker_model</text><rect width="302" height="39.789" x="192.5" y="306.37" fill="#3D176E" rx="2.5" ry="2.5" style="stroke:#000d19;stroke-width:.5"/><circle cx="207.5" cy="326.264" r="11" fill="#ADD1B2" style="stroke:#181818;stroke-width:1"/><path d="M210.469 331.905q-.578.297-1.219.438-.64.156-1.344.156-2.5 0-3.828-1.64-1.312-1.657-1.312-4.782t1.312-4.781q1.328-1.656 3.828-1.656.703 0 1.344.156.656.156 1.219.453v2.719q-.625-.579-1.219-.844-.594-.281-1.219-.281-1.344 0-2.031 1.078-.687 1.062-.687 3.156t.687 3.172q.688 1.062 2.031 1.062.625 0 1.219-.265.594-.281 1.219-.86z"/><text x="226.5" y="332.15" fill="#D9B8FF" font-family="Helvetica" font-size="17" textLength="260">aws_sagemaker_transform_job</text><path fill="none" d="M529.25 47.2c-12.24 37.78-37.372 115.352-49.622 153.182" style="stroke:#1a83af;stroke-width:2"/><path fill="#1A83AF" d="m477.78 206.09 6.578-7.33-5.038 2.573-2.573-5.038z" style="stroke:#1a83af;stroke-width:2"/><path fill="none" d="M486.31 47.22c-43.66 17.14-101.515 39.867-145.135 56.997" style="stroke:#1a83af;stroke-width:2"/><path fill="#1A83AF" d="m335.59 106.41 9.84.433-5.186-2.26 2.261-5.186z" style="stroke:#1a83af;stroke-width:2"/><path fill="none" d="M99.85 47.07c5.64 26.46 19.63 73.79 50.65 99.51 49.69 41.22 111.776 60.49 172.406 70.22" style="stroke:#1a83af;stroke-width:2"/><path fill="#1A83AF" d="m328.83 217.75-8.252-5.376 3.315 4.584-4.583 3.315z" style="stroke:#1a83af;stroke-width:2"/><path fill="none" d="M134.04 47.22c33.31 17.14 76.375 39.315 109.665 56.445" style="stroke:#1a83af;stroke-width:2"/><path fill="#1A83AF" d="m249.04 106.41-6.172-7.675 1.726 5.387-5.387 1.727z" style="stroke:#1a83af;stroke-width:2"/><path fill="none" d="M342.71 47.26c26.05 13.51 58.24 33.74 79.79 59.53 25.01 29.94 37.3 68.583 43.47 93.723" style="stroke:#1a83af;stroke-width:2"/><path fill="#1A83AF" d="m467.4 206.34 1.74-9.694-2.932 4.838-4.838-2.931z" style="stroke:#1a83af;stroke-width:2"/><path fill="none" d="M296.93 47.22c-2.28 17.14-4.798 36.113-7.078 53.243" style="stroke:#1a83af;stroke-width:2"/><path fill="#1A83AF" d="m289.06 106.41 5.152-8.394-4.492 3.438-3.438-4.493z" style="stroke:#1a83af;stroke-width:2"/><path fill="none" d="M487.75 246.8c18.56 24.57 43.92 67.61 23.75 99.36-18.74 29.51-46.15 46.107-77.99 57.827" style="stroke:#1a83af;stroke-width:2"/><path fill="#1A83AF" d="m427.88 406.06 9.828.645-5.136-2.372 2.372-5.136z" style="stroke:#1a83af;stroke-width:2"/><path fill="none" d="M446.21 246.8c-22.44 17.14-50.283 38.406-72.703 55.546" style="stroke:#1a83af;stroke-width:2"/><path fill="#1A83AF" d="m368.74 305.99 9.58-2.288-5.608-.749.749-5.607z" style="stroke:#1a83af;stroke-width:2"/><path fill="none" d="M263.02 147.06c-44.31 38.97-132 129.07-87.52 199.1 18.74 29.51 46.15 46.107 77.99 57.827" style="stroke:#1a83af;stroke-width:2"/><path fill="#1A83AF" d="m259.12 406.06-7.064-6.863 2.372 5.136-5.136 2.372z" style="stroke:#1a83af;stroke-width:2"/><path fill="none" d="M323.05 147.01c32.43 17.14 74.265 39.256 106.675 56.386" style="stroke:#1a83af;stroke-width:2"/><path fill="#1A83AF" d="m435.03 206.2-6.088-7.742 1.668 5.406-5.406 1.667z" style="stroke:#1a83af;stroke-width:2"/><path fill="none" d="M289.46 146.86c3.9 23.69 11.52 65.08 22.04 99.51 6.39 20.92 13.644 38.541 20.684 54.311" style="stroke:#1a83af;stroke-width:2"/><path fill="#1A83AF" d="m334.63 306.16-.016-9.849-2.022 5.283-5.283-2.022z" style="stroke:#1a83af;stroke-width:2"/><path fill="none" d="M343.5 346.59v53.19" style="stroke:#1a83af;stroke-width:2"/><path fill="#1A83AF" d="m343.5 405.78 4-9-4 4-4-4z" style="stroke:#1a83af;stroke-width:2"/></svg>
